en/_assets/wiki/svg/type-tracker.svg

<svg xmlns="http://www.w3.org/2000/svg" xmlns:xlink="http://www.w3.org/1999/xlink" width="16" height="16" class="yc-icon GridTable-HeaderCellIcon" fill="currentColor" stroke="none" aria-hidden="true"><svg viewBox="0 0 12 12" xmlns="http://www.w3.org/2000/svg"><path fill-rule="evenodd" clip-rule="evenodd" d="M4.28486 12V8.57143H7.71343V12H4.28486ZM4.284 7.71429V4.28571H7.71257V7.71429H4.284ZM0 3.42857V0H3.42857V3.42857H0ZM4.284 3.42857V0H7.71257V3.42857H4.284ZM8.56971 3.42857V0H12V3.42857H8.56971Z"></path></svg></svg>

<svg xmlns="http://www.w3.org/2000/svg" width="16" height="16" fill="currentColor" aria-hidden="true" class="yc-icon GridTable-HeaderCellIcon">
    <svg xmlns="http://www.w3.org/2000/svg" viewBox="0 0 12 12">
        <path fill-rule="evenodd" d="M4.285 12V8.571h3.428V12H4.285Zm-.001-4.286V4.286h3.429v3.428H4.284ZM0 3.43V0h3.429v3.429H0Zm4.284 0V0h3.429v3.429H4.284Zm4.286 0V0H12v3.429H8.57Z" clip-rule="evenodd"/>
    </svg>
</svg>
